packages/tokens/icons/speedTime/size24Px.svg

<svg xmlns="http://www.w3.org/2000/svg" fill="none" viewBox="0 0 24 24" width="1em" height="1em"><circle cx="15" cy="12" r="6.5" stroke="currentColor" stroke-linejoin="round"/><path stroke="currentColor" stroke-linecap="round" stroke-linejoin="round" d="M15 8.063v4.812l1.75 1.313"/><path stroke="currentColor" stroke-linecap="round" d="M6.5 12h-4M15 5.5H5.5m9.5 13H5.5m1-10h-2m2 7h-2"/></svg>

<svg viewBox="0 0 24 24" fill="none" xmlns="http://www.w3.org/2000/svg" width="1em" height="1em"><circle cx="15" cy="12" r="6.5" stroke="currentColor" stroke-linejoin="round"/><path d="M15 8.0625V12.875L16.75 14.1875" stroke="currentColor" stroke-linecap="round" stroke-linejoin="round"/><path d="M6.5 12H2.5M15 5.5L5.5 5.5M15 18.5H5.5M6.5 8.5H4.5M6.5 15.5H4.5" stroke="currentColor" stroke-linecap="round"/></svg>
